polaris-icons/icons/new-icons/PageUpMajor.svg

<svg width="20" height="20" viewBox="0 0 20 20" fill="none" xmlns="http://www.w3.org/2000/svg">
<path fill-rule="evenodd" clip-rule="evenodd" d="M5.5 5.25C5.5 4.55964 6.05964 4 6.75 4H9V7.75C9 8.7165 9.7835 9.5 10.75 9.5H14.5V10.25C14.5 10.6642 14.8358 11 15.25 11C15.6642 11 16 10.6642 16 10.25V8.75C16 8.55109 15.921 8.36032 15.7803 8.21967L10.2803 2.71967C10.1397 2.57902 9.94891 2.5 9.75 2.5H6.75C5.23122 2.5 4 3.73122 4 5.25V14.75C4 16.2688 5.23122 17.5 6.75 17.5H10.5C10.9142 17.5 11.25 17.1642 11.25 16.75C11.25 16.3358 10.9142 16 10.5 16H6.75C6.05964 16 5.5 15.4404 5.5 14.75V5.25ZM13.4393 8L10.5 5.06066V7.75C10.5 7.88807 10.6119 8 10.75 8H13.4393Z" fill="#4A4A4A"/>
<path d="M15 14.3107V17.25C15 17.6642 14.6642 18 14.25 18C13.8358 18 13.5 17.6642 13.5 17.25V14.3107L12.7803 15.0303C12.4874 15.3232 12.0126 15.3232 11.7197 15.0303C11.4268 14.7374 11.4268 14.2626 11.7197 13.9697L13.7197 11.9697C14.0126 11.6768 14.4874 11.6768 14.7803 11.9697L16.7803 13.9697C17.0732 14.2626 17.0732 14.7374 16.7803 15.0303C16.4874 15.3232 16.0126 15.3232 15.7197 15.0303L15 14.3107Z" fill="#4A4A4A"/>
</svg>

<svg viewBox="0 0 20 20" xmlns="http://www.w3.org/2000/svg"><path fill-rule="evenodd" d="M5.5 5.25c0-.69.56-1.25 1.25-1.25h2.25v3.75c0 .966.784 1.75 1.75 1.75h3.75v.75a.75.75 0 0 0 1.5 0v-1.5a.75.75 0 0 0-.22-.53l-5.5-5.5a.75.75 0 0 0-.53-.22h-3a2.75 2.75 0 0 0-2.75 2.75v9.5a2.75 2.75 0 0 0 2.75 2.75h3.75a.75.75 0 0 0 0-1.5h-3.75c-.69 0-1.25-.56-1.25-1.25v-9.5Zm7.94 2.75-2.94-2.94v2.69c0 .138.112.25.25.25h2.69Z" fill="#5C5F62"/><path d="M15 14.31v2.94a.75.75 0 0 1-1.5 0v-2.94l-.72.72a.75.75 0 1 1-1.06-1.06l2-2a.75.75 0 0 1 1.06 0l2 2a.75.75 0 1 1-1.06 1.06l-.72-.72Z" fill="#5C5F62"/></svg>
